X: 3
T: Sheila Coyle's
R: reel
M: 4/4
L: 1/8
K: Dmaj
FAAB ADFA|ADFA BAGF|GBBA B2B2|ABdf edBA|
FAAB ADFA|ADFA BAGF|GBBB AFDF|EFGE FDD2:|
|:dffe fgfe|dcdB AFDF|A2cA eAcA|B2 BA Bcdc|
dffe fgfe|dcdB AFDF|GB B2 AFDF|EFGE FDD2:|


Tune 1040	Setting 1040

